X: 70
T:Llancesau Trefaldwyn
M:6/8
L:1/8
Q:130
C:Trad
S:Cat's Claw
R:jig
A:Wales
Z:brian_martin12345@yahoo.com
K:D
A/G/|F2F GFG|AFD DFA|B2c dcB|ABG FGE|F2F GFG|AFD DFA|!
Bgf edc|d3d2:||
d|e2c Ace|f2d Adf|g2ef2d|ecA A2d|!e2c Ace|f2d Adf|efd cdB|
ABG FGE|F2F GFG|AFD DFA|!B2c dcB|ABG FGE|F2F GFG|AFD DFA|
Bgf edc|d3d2||

